X:84
T:All Is Well
S:American Veteran Fifer #84
C:J.L. Blatchley, Co.E.2nd N.Y.H.A.
M:6/8
L:1/8
Q:1/8=300
K:D 
%%MIDI program 72
%%MIDI transpose 8
%%MIDI ratio 3 1
F/G/ | A2d f2d | B2dA3 | c2e g3 | fed A3 |
A2d f2d | e2f g3 | a2f gfe | d2f d2 :|
|: d/f/ | a2g fed | e2d cBA | c2d e2A | d2e f3 |
g2b gfe | f2a fed | cde gfe | d2f d2 :|


